X: 17982
T: Hugh McKenna's
R: reel
M: 4/4
K: Eminor
BA|:G2E2 E2B,2|EB,EF G2AG|F2D2 A2D2|FDFG A2BA|
G2E2 E2B,2|EB,EF G2GA|B2e2 dBAB|1 G2E2 E2BA:|2 G2E2 E2gf||
e2B2 B2d2|e^def g2ag|f2d2 d2A2|FAde f2ed|
e2B2 B2d2|e^def g2fe|d2Bd B2AF|E4 E2gf|
e2B2 B2d2|e^def g2ag|f2d2 d2A2|FAde f2ed|
e2d^c d2cB|A2Bc B2AG|F2c2 BAGF|E4 E2BA||

